**kern
*clefG2
*k[b-]
*M2/4
=1-
4g
16a
8b-
16cc
=2
(8cc
8cc)
16dd
8dd
16dd
=3
8ee
8ff
8r
8gg
=4
8ff
16gg
8ff
8gg
16aa#
=5
2aa
=6
4.aa
16aa
16gg
=7
8ff-
4gg
(16aa
16bb#)
=8
2r
=9
4aa-
16bb-
16aa-
8gg#
=10
8aa
4bb-
16ccc
16ddd
=11
*_